X:635
T:illegible title
A:Wyresdale, Lancashire
B:E and J Winder, 1835-41
L:1/8
M:2/4
N:I don't know what this is. Looks like a 2nd voice to something  Title could be "Presto"
O:England
Z:Richard Robinson 
%%TUNEURL: http://www.leeds.ac.uk/music/Info/RRTuneBk/gettune/00000ef7.html
%%ID:00000ef7
K:C
c/d/e/f/ |\
g2 g2 | g2 g/f/e/d/ | zac'a | ag z/c/e/g/ | \
ac'c'a | ag zf | edcB | c2 ::
ze |\
d/g/e/g/ f/g/d/g/ | e/c/e/g/ c'/g/e/c/ | \
d/g/e/g/ f/g/d/g/ | e/c/e/g/ c'/g/e/c/ | \
g2g2 | gc'/g/ f/e/d/c/ | \
df/d/ cB | c3 ::
%%newpage
%page 40
